32x32/status/smartphone-disconnected.svg

<svg xmlns="http://www.w3.org/2000/svg" width="32" height="32" version="1">
 <path opacity=".2" d="m4 29v1.5c0 0.831 0.669 1.5 1.5 1.5h21c0.831 0 1.5-0.669 1.5-1.5v-1.5c0 0.831-0.669 1.5-1.5 1.5h-21c-0.831 0-1.5-0.669-1.5-1.5z"/>
 <rect fill="#8e8e8e" width="30" height="24" x="-31" y="-28" rx="1.5" ry="1.5" transform="matrix(0,-1,-1,0,0,0)"/>
 <path style="opacity:0.5" d="m7.5385 3.9997h16.924c0.852 0 1.538 0.7548 1.538 1.6923v18.616c0 0.937-0.686 1.692-1.538 1.692h-16.924c-0.8518 0-1.538-0.75458-1.538-1.6918v-18.615c0.001-0.9374 0.6872-1.6922 1.5395-1.6922z"/>
 <path fill="#fff" style="opacity:0.2" d="m5.5 1c-0.831 0-1.5 0.669-1.5 1.5v1c0-0.831 0.669-1.5 1.5-1.5h21c0.831 0 1.5 0.669 1.5 1.5v-1c0-0.831-0.669-1.5-1.5-1.5h-21z"/>
 <rect style="opacity:0.5" width="8" height="1" x="12" y="2" rx=".5" ry=".5"/>
 <g>
  <circle fill="#db3c30" cx="24" cy="24" r="7"/>
  <path opacity=".2" d="m30.977 24.459a7 7 0 0 1 -6.977 6.541 7 7 0 0 1 -6.977 -6.459 7 7 0 0 0 -0.023 0.459 7 7 0 0 0 7 7 7 7 0 0 0 7 -7 7 7 0 0 0 -0.02344 -0.54102z"/>
  <g fill="#fff" transform="matrix(.70711 -.70711 .70711 .70711 -9.9411 24)">
   <rect width="8" height="2" x="20" y="23"/>
   <rect width="8" height="2" x="20" y="-25" transform="rotate(90)"/>
  </g>
 </g>
 <circle style="opacity:0.5" cx="16" cy="28" r="1"/>
</svg>

<svg xmlns="http://www.w3.org/2000/svg" width="32" height="32" version="1"><path opacity=".2" d="M4 29v1.5c0 .831.669 1.5 1.5 1.5h21c.831 0 1.5-.669 1.5-1.5V29c0 .831-.669 1.5-1.5 1.5h-21c-.831 0-1.5-.669-1.5-1.5z"/><rect fill="#8e8e8e" width="30" height="24" x="-31" y="-28" rx="1.5" ry="1.5" transform="matrix(0 -1 -1 0 0 0)"/><path style="opacity:.5" d="M7.538 4h16.924C25.314 4 26 4.754 26 5.692v18.616c0 .937-.686 1.692-1.538 1.692H7.538C6.687 26 6 25.245 6 24.308V5.693c.001-.937.688-1.692 1.54-1.692z"/><path fill="#fff" style="opacity:.2" d="M5.5 1C4.669 1 4 1.669 4 2.5v1C4 2.669 4.669 2 5.5 2h21c.831 0 1.5.669 1.5 1.5v-1c0-.831-.669-1.5-1.5-1.5h-21z"/><rect style="opacity:.5" width="8" height="1" x="12" y="2" rx=".5" ry=".5"/><circle fill="#db3c30" cx="24" cy="24" r="7"/><path opacity=".2" d="M30.977 24.459A7 7 0 0 1 24 31a7 7 0 0 1-6.977-6.459A7 7 0 0 0 17 25a7 7 0 0 0 7 7 7 7 0 0 0 7-7 7 7 0 0 0-.023-.541z"/><g fill="#fff"><path d="m20.465 26.121 5.657-5.657 1.414 1.415-5.657 5.657z"/><path d="m21.879 20.464 5.657 5.657-1.414 1.415-5.657-5.657z"/></g><circle style="opacity:.5" cx="16" cy="28" r="1"/></svg>
